X:1
T:Mueller, 11.11.11.11
T:James Ramsey Murray, 1887
T:Mueller, 11.11.11.11
T:Public Domain
C:James Ramsey Murray, 1887
Z:Public Domain
%%score ( 1 2 ) 3
L:1/8
M:4/4
K:F
V:1 treble 
V:2 treble 
V:3 bass 
V:1
 [Fc]2 | [Fc]3 [GB] [FA]2 | [FA]2 [CG]2 [CF]2 | [DF]2 [CE]2 [B,D]2 | [A,C]4 [A,C]2 | C3 [B,D] C2 | %6
 C2 [B,G]2 [B,E]2 | [B,D]2 [A,C]2 [CF]2 | [FA]4 [Fc]2 | [Fc]3 [GB] [FA]2 | [FA]2 [CG]2 [CF]2 | %11
 [DF]2 [CE]2 [B,D]2 | [A,C]4 C2 | [EB]3 [FA] [EG]2 | [FA]2 [CG]2 [CF]2 | [DG]2 [B,D]2 [CE]2 | %16
 [CF]6 |] %17
V:2
 x2 | x6 | x6 | x6 | x6 | B,3 B,2 x | B,2 x4 | x6 | x6 | x6 | x6 | x6 | x6 | x6 | x6 | x6 | x6 |] %17
V:3
 [F,A,]2 | [F,A,]3 [F,D] [F,C]2 | [F,C]2 [F,B,]2 [F,A,]2 | [B,,B,]2 [B,,F,]2 [B,,F,]2 | %4
 [F,,F,]4 [F,,F,]2 | [C,E,]3 [C,E,] [C,E,]2 | [C,E,]2 [C,E,]2 [C,G,]2 | F,2 F,2 [F,A,]2 | %8
 [F,C]4 [F,A,]2 | [F,A,]3 [F,D] [F,C]2 | [F,C]2 [F,B,]2 [F,A,]2 | [B,,B,]2 [B,,F,]2 [B,,F,]2 | %12
 [F,,F,]4 [A,,F,]2 | [C,G,]3 [C,C] [C,C]2 | [F,C]2 [F,B,]2 [F,A,]2 | [B,,G,]2 [G,,G,]2 [C,B,]2 | %16
 [F,A,]6 |] %17

